dist/assets/img/artifact-parts/termination/message_5.svg

<svg width="510" height="286" viewBox="0 0 510 286" fill="none" xmlns="http://www.w3.org/2000/svg">
<g filter="url(#filter0_di_1464_62979)">
<path fill-rule="evenodd" clip-rule="evenodd" d="M57.2271 172.504C61.3669 172.037 65.5399 174.116 67.3075 177.888C68.435 180.294 69.6739 182.661 71.0246 184.981C97.0975 229.759 182.199 231.427 254.375 232.793L254.819 232.801C329.033 234.206 430.591 236.128 458.379 177.854C485.35 121.294 464.747 72.1255 403.075 47.1862C354.043 27.3581 183.403 20.2734 129.229 41.3919C76.7609 61.8448 52.8553 110.255 59.8783 153.735C60.2839 156.246 59.6498 158.881 57.7538 160.577C52.5398 165.24 47.5089 166.722 40.9589 168.651C40.3582 168.828 40.2266 169.603 40.7631 169.926C45.4794 172.765 51.7042 173.127 57.2271 172.504Z" fill="white"/>
</g>
<defs>
<filter id="filter0_di_1464_62979" x="0.425781" y="0.561523" width="509.574" height="284.705" filterUnits="userSpaceOnUse" color-interpolation-filters="sRGB">
<feFlood flood-opacity="0" result="BackgroundImageFix"/>
<feColorMatrix in="SourceAlpha" type="matrix" values="0 0 0 0 0 0 0 0 0 0 0 0 0 0 0 0 0 0 127 0" result="hardAlpha"/>
<feOffset dy="12"/>
<feGaussianBlur stdDeviation="20"/>
<feComposite in2="hardAlpha" operator="out"/>
<feColorMatrix type="matrix" values="0 0 0 0 0.909804 0 0 0 0 0.313726 0 0 0 0 0.470588 0 0 0 1 0"/>
<feBlend mode="normal" in2="BackgroundImageFix" result="effect1_dropShadow_1464_62979"/>
<feBlend mode="normal" in="SourceGraphic" in2="effect1_dropShadow_1464_62979" result="shape"/>
<feColorMatrix in="SourceAlpha" type="matrix" values="0 0 0 0 0 0 0 0 0 0 0 0 0 0 0 0 0 0 127 0" result="hardAlpha"/>
<feOffset dy="-4"/>
<feGaussianBlur stdDeviation="4"/>
<feComposite in2="hardAlpha" operator="arithmetic" k2="-1" k3="1"/>
<feColorMatrix type="matrix" values="0 0 0 0 0.909804 0 0 0 0 0.313726 0 0 0 0 0.470588 0 0 0 0.16 0"/>
<feBlend mode="normal" in2="shape" result="effect2_innerShadow_1464_62979"/>
</filter>
</defs>
</svg>

<svg width="510" height="286" viewBox="0 0 510 286" fill="none" xmlns="http://www.w3.org/2000/svg"><g filter="url(#filter0_di_1464_62979)"><path fill-rule="evenodd" clip-rule="evenodd" d="M57.227 172.504c4.14-.467 8.313 1.612 10.08 5.384a90.003 90.003 0 003.718 7.093c26.072 44.778 111.174 46.446 183.35 47.812l.444.008c74.214 1.405 175.772 3.327 203.56-54.947 26.971-56.56 6.368-105.729-55.304-130.668-49.032-19.828-219.672-26.913-273.846-5.794-52.468 20.453-76.374 68.863-69.35 112.343.405 2.511-.23 5.146-2.125 6.842-5.214 4.663-10.245 6.145-16.795 8.074-.6.177-.732.952-.196 1.275 4.716 2.839 10.941 3.201 16.464 2.578z" fill="#fff"/></g><defs><filter id="filter0_di_1464_62979" x=".426" y=".562" width="509.574" height="284.705" filterUnits="userSpaceOnUse" color-interpolation-filters="sRGB"><feFlood flood-opacity="0" result="BackgroundImageFix"/><feColorMatrix in="SourceAlpha" values="0 0 0 0 0 0 0 0 0 0 0 0 0 0 0 0 0 0 127 0" result="hardAlpha"/><feOffset dy="12"/><feGaussianBlur stdDeviation="20"/><feComposite in2="hardAlpha" operator="out"/><feColorMatrix values="0 0 0 0 0.909804 0 0 0 0 0.313726 0 0 0 0 0.470588 0 0 0 1 0"/><feBlend in2="BackgroundImageFix" result="effect1_dropShadow_1464_62979"/><feBlend in="SourceGraphic" in2="effect1_dropShadow_1464_62979" result="shape"/><feColorMatrix in="SourceAlpha" values="0 0 0 0 0 0 0 0 0 0 0 0 0 0 0 0 0 0 127 0" result="hardAlpha"/><feOffset dy="-4"/><feGaussianBlur stdDeviation="4"/><feComposite in2="hardAlpha" operator="arithmetic" k2="-1" k3="1"/><feColorMatrix values="0 0 0 0 0.909804 0 0 0 0 0.313726 0 0 0 0 0.470588 0 0 0 0.16 0"/><feBlend in2="shape" result="effect2_innerShadow_1464_62979"/></filter></defs></svg>
